X: 1776
T: Star-Spangled Banner
C: Frances Scott Key
V:treble
V:bass
M: 3/4
L: 1/4
Q: 1/4=100
K: C
V:treble
z2 G3/4E/4 | C [EC,G] G | [C2E2c2] e3/4d/4 | [C2E2c2] [EC] [^FC] | [B,2G2] z2 |
w: Oh_ say can you see by the dawn's ear-ly light
V:bass
z2 G,,3/4 E,,/4 | C,, G, B,, | A,,2 [bE_A,,] | A,,2 D,,2 | G,,3 z |
